resources/svg/drop.svg

<svg xmlns="http://www.w3.org/2000/svg" viewBox="0 0 15 15" fill="currentColor"><path d="M7.84749 0.140481C7.65369 -0.046827 7.34631 -0.046827 7.15252 0.140481L2.86679 4.28272L2.86315 4.28631C1.96612 5.1712 1.35737 6.29444 1.11599 7.51612C0.874584 8.73792 1.01193 10.0012 1.50997 11.1467C2.00793 12.2921 2.84344 13.2671 3.90912 13.9516C4.97463 14.6359 6.22377 15 7.5 15C8.77624 15 10.0254 14.6359 11.0909 13.9516C12.1566 13.2671 12.9921 12.2921 13.49 11.1467C13.9881 10.0012 14.1254 8.73792 13.884 7.51612C13.6426 6.29444 13.0339 5.17118 12.1369 4.28629L7.84749 0.140481Z" fill="black"/></svg>

<svg xmlns="http://www.w3.org/2000/svg" viewBox="0 0 15 15" fill="currentColor"><path d="M7.847.14a.5.5 0 00-.694 0L2.867 4.283l-.004.003a6.237 6.237 0 00-1.747 3.23 6.12 6.12 0 00.394 3.63 6.35 6.35 0 002.4 2.806A6.65 6.65 0 007.5 15a6.65 6.65 0 003.59-1.048 6.348 6.348 0 002.4-2.805 6.12 6.12 0 00.394-3.63 6.238 6.238 0 00-1.747-3.23L7.847.14z" fill="currentColor"/></svg>
